X: 706
T: Fang sijie
%%abc-version 2.0
%%abcx-abcm2ps-target-version 5.9.1 (29 Sep 2008)
%%abc-creator hum2abc beta
%%abcx-conversion-date 2013/10/02 07:52:30
%%abc-edited-by Helmut Schaffrath
%%humdrum-veritas 4270589492
%%humdrum-veritas-data 2078030022
%%continueall 1
%%barnumbers 0
L: 1/8
M: 2/4
K: Eb
g c e f [I:setbarnb 1]| 
g g f e | 
g g c e | 
c BG2 | 
B G B c | 
e3c | 
g2f e | 
c B G c | 
B4 | 
B ce2 | 
gf2e | 
G2B2 | 
e2c B | 
B F G F | 
E4 | 
GG2B | 
c4 | 
c e c B | 
B F G F | 
E3B | 
G F E C | 
E4 |]  



